!!!COM: Corelli, Arcangelo
!!!OPR: Church Sonata in F Major
!!!ONM: Opus 1, No. 1
!!!OTL:
!!!OMV: 3
!!!YOR: Chrysander Edition
!!!EED: Steven Rasmussen
!!!ENC: Steven Rasmussen
!!!CDT: 1653/2/17/-1713/1/8/
!!!OCY: Italia
!!!YEC: Copyright (c) 1994, 2000 Center for Computer Assisted Research in the Humanities
!!!YEM: Rights to all derivative editions reserved.
!!!YEM: Refer to licensing agreement for further details.
!!!YEN: United States of America
**kern	**dynam	**kern	**dynam	**kern	**dynam
*I:Violino 1	*I:Violino 1	*I:Violino 2	*I:Violino 2	*I:Organo	*I:Organo
*clefG2	*	*clefG2	*	*clefF4	*
*k[b-]	*	*k[b-]	*	*k[b-]	*
*F:	*	*F:	*	*F:	*
*M3/4	*	*M3/4	*	*M3/4	*
! Adagio	!	! Adagio	!	! Adagio.	!
*tb8	*	*tb8	*	*tb8	*
=1-	=1-	=1-	=1-	=1-	=1-
*	*	*	*	*^	*
!	!	!	!	!	! **Bnum:2_b	!
!	!	!	!	!	! **Bnum:._4 2	!
!	!	!	!	!	!	!
!	!	!	!	!	!	!
4r	.	4r	.	2.F/	2.F\	.
4aa\	.	4ff\	.	.	.	.
4bb-\	.	4gg\	.	.	.	.
=2	=2	=2	=2	=2	=2	=2
!	!	!	!	!	! **Bnum:._5 3	!
4.ccc\	.	4.aa\	.	4.F/	4.F\	.
!	!	!	!	!	! unis.	!
8bb-\	.	8gg\	.	8ryy	8G\	.
!	!	!	!	!	! **Bnum:._6	!
4aa\	.	4ff\	.	8ryy	4A\	.
.	.	.	.	8ryy	.	.
=3	=3	=3	=3	=3	=3	=3
*	*	*	*	*v	*v	*
!	!	!	!	! **Bnum:._6 5	!
!	!	!	!	!	!
4ddd\	.	(8gg\L	.	4B-\	.
.	.	8bb-\J)	.	.	.
!	!	!	!	! **Bnum:._6 4	!
4.ccc\	.	4.aa\	.	4c\	.
!	!	!	!	! **Bnum:._7 5 3	!
.	.	.	.	4C/	.
8bb-\	.	8gg\	.	.	.
=4	=4	=4	=4	=4	=4
!	!	!	!	! **Bnum:._5	!
4.aa\	.	2ff\	.	4D\	.
!	!	!	!	! **Bnum:._5 4 2	!
.	.	.	.	4F\	.
8bb-\	.	.	.	.	.
!	!	!	!	! **Bnum:._6	!
4ccc\	.	4gg\	.	4E\	.
=5	=5	=5	=5	=5	=5
!	!	!	!	! **Bnum:._6	!
2bb-\	.	2ff\	.	2D\	.
!	!	!	!	! **Bnum:._6	!
[4aa\	.	4ee\	.	4C/	.
=6	=6	=6	=6	=6	=6
!	!	!	!	! **Bnum:._7	!
4aa\]	.	4dd\	.	4BB-/	.
!	!	!	!	! **Bnum:._6	!
4.gg\	.	4.dd\	.	2BB-/	.
8aa\	.	8cc#\	.	.	.
=7	=7	=7	=7	=7	=7
!	!	!	!	! **Bnum:._#	!
4aa\	.	2cc#\	.	4AA/	.
[2aa\	.	.	.	2AA/	.
.	.	4cc#\	.	.	.
=8	=8	=8	=8	=8	=8
!	!	!	!	! **Bnum:4_7	!
!	!	!	!	! **Bnum:._6	!
4aa\]	.	2dd\	.	2BBn/	.
[2gg\	.	.	.	.	.
!	!	!	!	! **Bnum:._5	!
.	.	4ee\	.	4C#/	.
=9	=9	=9	=9	=9	=9
!	!	!	!	! **Bnum:4_4	!
!	!	!	!	! **Bnum:._3	!
4gg\]	.	2a/	.	2D\	.
[2ff\	.	.	.	.	.
!	!	!	!	! **Bnum:._6	!
.	.	4dd\	.	4F\	.
=10	=10	=10	=10	=10	=10
!	!	!	!	! **Bnum:4_7	!
!	!	!	!	! **Bnum:._6f	!
4ff\]	.	2b-\	.	2G\	.
[2ee-\	.	.	.	.	.
!	!	!	!	! **Bnum:._5f	!
.	.	4cc\	.	4A\	.
=11	=11	=11	=11	=11	=11
!	!	!	!	! **Bnum:4_4f	!
!	!	!	!	! **Bnum:._3	!
4ee-\]	.	2f/	.	2B-\	.
[2dd\	.	.	.	.	.
!	!	!	!	! **Bnum:._6	!
.	.	4a/	.	4F\	.
=12	=12	=12	=12	=12	=12
!	!	!	!	! **Bnum:._7 5	!
4dd\]	.	4b-\	.	4G\	.
!	!	!	!	! **Bnum:._5 4	!
4.dd\	.	4.e/	.	4A\	.
!	!	!	!	! **Bnum:8_b	!
!	!	!	!	! **Bnum:._b #	!
.	.	.	.	4AA/	.
8cc#\	.	8e/	.	.	.
=13	=13	=13	=13	=13	=13
4dd\	.	2d/	.	4DD/	.
!	!	!	!	! **Bnum:._6	!
[2b-\	.	.	.	4D\	.
!	!	!	!	! **Bnum:._6 5	!
.	.	4r	.	4E\	.
=14	=14	=14	=14	=14	=14
!	!	!	!	! **Bnum:._5 4	!
4b-\]	.	4r	.	4F\	.
!	!	!	!	! **Bnum:._6 3	!
4a/	.	[2dd\	.	4F\	.
!	!	!	!	! **Bnum:._5	!
4b-\	.	.	.	4G\	.
=15	=15	=15	=15	=15	=15
!	!	!	!	! **Bnum:4_5 4	!
!	!	!	!	! **Bnum:._b #	!
4e/	.	4dd\]	.	2A\	.
[2aa\	.	4cc#\	.	.	.
.	.	4r	.	4A\	.
=16	=16	=16	=16	=16	=16
!	!	!	!	! **Bnum:4_7	!
!	!	!	!	! **Bnum:._6	!
4aa\]	.	2.bb-\	.	2B-\	.
[2gg\	.	.	.	.	.
.	.	.	.	4G\	.
=17	=17	=17	=17	=17	=17
!	!	!	!	! **Bnum:._6 5	!
4gg\]	.	2.aa\	.	4c\	.
!	!	!	!	! **Bnum:._6	!
[2ff\	.	.	.	4A\	.
.	.	.	.	4F\	.
=18	=18	=18	=18	=18	=18
!	!	!	!	! **Bnum:._7 n	!
4ff\]	.	4bbn\	.	4G\	.
!	!	!	!	! **Bnum:._5f	!
2ee-\	.	[2ccc\	.	4A-\	.
!	!	!	!	! **Bnum:._6	!
.	.	.	.	4E-\	.
=19	=19	=19	=19	=19	=19
!	!	!	!	! **Bnum:._6 5	!
4dd\	.	4ccc\]	.	4F\	.
!	!	!	!	! **Bnum:._n	!
2dd\	.	2bbn\	.	4G\	.
.	.	.	.	4GG/	.
=20	=20	=20	=20	=20	=20
4cc\	.	4ccc\	.	4c\	.
!	!	!	!	! **Bnum:._6	!
4gg\	.	4r	.	4B-\	.
!	!	!	!	! **Bnum:._6+	!
4aa\	.	4r	.	4A\	.
=21	=21	=21	=21	=21	=21
!	!	!	!	! **Bnum:._5	!
4bb-\	.	4r	.	2G\	.
[2bb-\	.	4dd\	.	.	.
!	!	!	!	! **Bnum:._6	!
.	.	4ee\	.	4GG/	.
=22	=22	=22	=22	=22	=22
!	!	!	!	! **Bnum:4_6	!
!	!	!	!	! **Bnum:._5	!
4bb-\]	.	4ff\	.	2D\	.
2aa\	.	[2ff\	.	.	.
!	!	!	!	! **Bnum:._6	!
.	.	.	.	4AA/	.
=23	=23	=23	=23	=23	=23
!	!	!	!	! **Bnum:._6 5	!
2.gg\	.	4ff\]	.	4BB-/	.
!	!	!	!	! **Bnum:._5	!
.	.	[2ee\	.	4C/	.
.	.	.	.	4c\	.
=24	=24	=24	=24	=24	=24
!	!	!	!	! **Bnum:._6 5	!
2.ff\	.	4ee\]	.	4A\	.
!	!	!	!	! **Bnum:._6	!
.	.	[2dd\	.	4F\	.
.	.	.	.	4D\	.
=25	=25	=25	=25	=25	=25
!	!	!	!	! **Bnum:._6 5	!
2.ee\	.	4dd\]	.	4G\	.
!	!	!	!	! **Bnum:._#	!
.	.	2cc#\	.	4A\	.
.	.	.	.	4AA/	.
=26	=26	=26	=26	=26	=26
!	!	!	!	! **Bnum:4_5	!
!	!	!	!	! **Bnum:._6	!
4dd\	.	4dd\	.	2D\	.
4r	.	[2bb-\	.	.	.
!	!	!	!	! **Bnum:._f	!
4r	.	.	.	4G\	.
=27	=27	=27	=27	=27	=27
!	!	!	!	! **Bnum:._6 5	!
2.cc\	.	4bb-\]	.	4E\	.
!	!	!	!	! **Bnum:._6	!
.	.	[2aa\	.	4C/	.
!	!	!	!	! **Bnum:._6	!
.	.	.	.	4AA/	.
=28	=28	=28	=28	=28	=28
!	!	!	!	! **Bnum:._7	!
2.dd\	.	4aa\]	.	4BB-/	.
!	!	!	!	! **Bnum:._6	!
.	.	[2gg\	.	2BBn/	.
=29	=29	=29	=29	=29	=29
4ee\	.	4gg\]	.	2C/	.
[2ccc\	.	4r	.	.	.
!	!	!	!	! **Bnum:._6	!
.	.	4cc\	.	4AA/	.
=30	=30	=30	=30	=30	=30
!	!	!	!	! **Bnum:4_9	!
!	!	!	!	! **Bnum:._8	!
4ccc\]	.	2dd\	.	2BB-/	.
[2bb-\	.	.	.	.	.
.	.	4dd\	.	4GG/	.
=31	=31	=31	=31	=31	=31
!	!	!	!	! **Bnum:._7	!
4bb-\]	.	4ee\	.	4C/	.
!	!	!	!	! **Bnum:._5f	!
2aa-\	.	[2ff\	.	4D-\	.
!	!	!	!	! **Bnum:._6	!
.	.	.	.	4AA-/	.
=32	=32	=32	=32	=32	=32
!	!	!	!	! **Bnum:._6 5 f	!
4gg\	.	4ff\]	.	4BB-/	.
!	!	!	!	! **Bnum:._5 4	!
2gg\	.	4.ff\	.	4C/	.
!	!	!	!	! **Bnum:8_b	!
!	!	!	!	! **Bnum:._b 3	!
.	.	.	.	4CC/	.
.	.	8ee\	.	.	.
=33	=33	=33	=33	=33	=33
4ff\	.	4ff\	.	2FF/	.
[2ccc\	p	4r	.	.	.
!	!	!	!	! **Bnum:._6	!
.	.	4cc\	p	4AA/	p
=34	=34	=34	=34	=34	=34
!	!	!	!	! **Bnum:4_9	!
!	!	!	!	! **Bnum:._8	!
4ccc\]	.	2dd\	.	2BB-/	.
[2bb-\	.	.	.	.	.
.	.	4dd\	.	4GG/	.
=35	=35	=35	=35	=35	=35
!	!	!	!	! **Bnum:._7	!
4bb-\]	.	4ee\	.	4C/	.
!	!	!	!	! **Bnum:._5f	!
2aa-\	.	[2ff\	.	4D-\	.
!	!	!	!	! **Bnum:._6	!
.	.	.	.	4AA-/	.
=36	=36	=36	=36	=36	=36
!	!	!	!	! **Bnum:._6 5 f	!
4gg\	.	4ff\]	.	4BB-/	.
!	!	!	!	! **Bnum:._5 4	!
2gg\	.	4.ff\	.	4C/	.
!	!	!	!	! **Bnum:8_b	!
!	!	!	!	! **Bnum:._b 3	!
.	.	.	.	4CC/	.
.	.	8ee\	.	.	.
=37	=37	=37	=37	=37	=37
2ff\	.	2ff\	.	2.FF/	.
4r	.	4r	.	.	.
==|!	==|!	==|!	==|!	==|!	==|!
*-	*-	*-	*-	*-	*-
!!!RWG: Key is interpreted using the Humdrum key tool.
!!!GTL: Sonate a tre
!!!AFT: stage2
!!!END: 1993/08/16
!!format changes:
!!content changes:
!!public access: complete
!!!KEY: 554085416
!!!EMD: Converted from MuseData to Humdrum Dec 16, 2000, by Andreas Kornstaedt using muse2kern.
